src/root_files/_common/binary-to-deriv/image/linkedin.svg

<svg width="40" height="40" viewBox="0 0 40 40" fill="none" xmlns="http://www.w3.org/2000/svg">
<path d="M0 20C0 8.95431 8.95431 0 20 0C31.0457 0 40 8.95431 40 20C40 31.0457 31.0457 40 20 40C8.95431 40 0 31.0457 0 20Z" fill="#333333"/>
<path d="M9.58286 12.5H12.9171C13.3771 12.5 13.75 12.1978 13.75 11.8249V9.42506C13.75 9.05222 13.3771 8.75 12.9171 8.75H9.58286C9.12282 8.75 8.75 9.05222 8.75 9.42506V11.8249C8.75 12.1978 9.12282 12.5 9.58286 12.5Z" fill="white"/>
<path d="M9.58286 28.75H12.9171C13.3771 28.75 13.75 28.4343 13.75 28.0448V15.7052C13.75 15.3157 13.3771 15 12.9171 15H9.58286C9.12282 15 8.75 15.3157 8.75 15.7052V28.0448C8.75 28.4342 9.12282 28.75 9.58286 28.75Z" fill="white"/>
<path d="M28.3523 14.2864C29.1478 14.6442 29.7495 15.1007 30.1575 15.6557C30.5658 16.2111 30.85 16.841 31.0099 17.5456C31.1699 18.2502 31.25 19.2592 31.25 20.5723V28.0004C31.25 28.4143 30.9253 28.75 30.5247 28.75H27.6211C27.2205 28.75 26.8958 28.4143 26.8958 28.0004V22.4621C26.8958 20.6257 26.8029 19.438 26.6168 18.8988C26.4309 18.3595 26.1287 17.9407 25.7103 17.6417C25.2918 17.3427 24.7882 17.1932 24.1993 17.1932C23.4451 17.1932 22.7685 17.4068 22.1693 17.8339C21.5702 18.261 21.1594 18.8267 20.9374 19.5313C20.7153 20.2359 20.6043 21.5385 20.6043 23.4388V28.0004C20.6043 28.4144 20.2796 28.75 19.879 28.75H16.9753C16.5747 28.75 16.25 28.4144 16.25 28.0004V14.8839C16.25 14.4699 16.5747 14.1344 16.9753 14.1344H19.5691C19.9697 14.1344 20.2944 14.4699 20.2944 14.8839V15.8832C20.2944 16.2972 20.4904 16.3642 20.76 16.058C22.1149 14.5192 23.7676 13.75 25.7179 13.75C26.6787 13.75 27.5568 13.9289 28.3523 14.2864Z" fill="white"/>
</svg>

<svg width="40" height="40" fill="none" xmlns="http://www.w3.org/2000/svg"><path d="M0 20C0 8.954 8.954 0 20 0s20 8.954 20 20-8.954 20-20 20S0 31.046 0 20Z" fill="#333"/><path d="M9.583 12.5h3.334c.46 0 .833-.302.833-.675v-2.4c0-.373-.373-.675-.833-.675H9.583c-.46 0-.833.302-.833.675v2.4c0 .373.373.675.833.675Zm0 16.25h3.334c.46 0 .833-.316.833-.705v-12.34c0-.39-.373-.705-.833-.705H9.583c-.46 0-.833.316-.833.705v12.34c0 .39.373.705.833.705Zm18.769-14.464c.796.358 1.398.815 1.805 1.37.409.555.693 1.185.853 1.89.16.704.24 1.713.24 3.026V28c0 .414-.325.75-.725.75H27.62a.738.738 0 0 1-.725-.75v-5.538c0-1.836-.093-3.024-.28-3.563-.185-.54-.487-.958-.906-1.257-.418-.3-.922-.449-1.51-.449-.755 0-1.431.214-2.03.64a3.22 3.22 0 0 0-1.233 1.698c-.222.705-.333 2.008-.333 3.908V28c0 .414-.324.75-.725.75h-2.904a.738.738 0 0 1-.725-.75V14.884c0-.414.325-.75.725-.75h2.594c.4 0 .725.336.725.75v1c0 .413.196.48.466.174 1.355-1.539 3.008-2.308 4.958-2.308.96 0 1.839.179 2.634.536Z" fill="#fff"/></svg>
